!!!SOCIAL_FUNCTION:	songs of the drum-presentation ceremony
!!!PDT:	1913
!!!OTL: No_62_Mourners'_Song.krn
!!!REG: Great_Lakes
!!!LANG: Non-Tone
!!!LING_GROUP: Algonquin
**kern	**kern
*staff2	*staff1
*clefF4	*clefF4
*k[]	*k[]
*M2/4	*M2/4
4r	8e\L
.	8d\J
=1	=1
8GG/L	16e\LK
.	8.d\J
8GG/J	.
8GG/L	8.d\L
8GG/J	.
.	16d\Jk
=2||	=2||
*M3/4	*M3/4
8GG/L	8.d\L
8GG/J	.
.	16d\Jk
8GG/L	8d\L
8GG/J	8A\J
8GG/L	8e\L
8GG/J	8d\J
=3||	=3||
*M2/4	*M2/4
2r	16e\LK
.	8.d\J
.	8.d\L
.	16d\Jk
=4	=4
2r	8.d\L
.	16d\Jk
.	4d\
=5||	=5||
*M3/4	*M3/4
2.r	16c\LK
.	8.c\J
.	16d\LK
.	8d\
.	16c\Jk
.	4A\
=6||	=6||
*M2/4	*M2/4
2r	16c\LK
.	8.A\J
.	8.A\L
.	16A\Jk
=7	=7
2r	8.A\L
.	16A\Jk
.	4A\
=8!|:	=8!|:
*M3/4	*M3/4
2.r	8A\L
.	8A\J
.	8d\L
.	8c\J
.	12d\L
.	12c\
.	12F\J
=9||	=9||
*M2/4	*M2/4
2r	16F\LK
.	8.D\J
.	8.D\L
.	16F\Jk
=10	=10
2r	16F\LK
.	8.D\J
.	8.D/L
.	16C/Jk
=11||	=11||
*M3/4	*M3/4
2.r	2.D\
=12	=12
2.r	4C/
.	16D\LK
.	8D\
.	16C\Jk
.	4AA/
=13||	=13||
*M2/4	*M2/4
2r	8C/L
.	16AA/L
.	16AA/JJ
.	8.AA/L
.	16AA/Jk
=14	=14
2r	[2AA/
=15	=15
2r	4AA/]
.	4r
==:|!	==:|!
*-	*-
